ui/StatusQ/src/assets/img/icons/filter.svg

<svg fill="none" height="24" viewBox="0 0 24 24" width="24" xmlns="http://www.w3.org/2000/svg"><g fill="#000"><path d="m10 15.25c-.41421 0-.75.3358-.75.75s.33579.75.75.75h4c.4142 0 .75-.3358.75-.75s-.3358-.75-.75-.75z"/><path d="m6.25 12c0-.4142.33579-.75.75-.75h10c.4142 0 .75.3358.75.75s-.3358.75-.75.75h-10c-.41421 0-.75-.3358-.75-.75z"/><path d="m3.25 8c0-.41421.33579-.75.75-.75h16c.4142 0 .75.33579.75.75s-.3358.75-.75.75h-16c-.41421 0-.75-.33579-.75-.75z"/></g></svg>

<svg width="24" height="24" viewBox="0 0 24 24" fill="none" xmlns="http://www.w3.org/2000/svg">
<path d="M10 15.25C9.58579 15.25 9.25 15.5858 9.25 16C9.25 16.4142 9.58579 16.75 10 16.75H14C14.4142 16.75 14.75 16.4142 14.75 16C14.75 15.5858 14.4142 15.25 14 15.25H10Z" fill="black"/>
<path d="M6.25 12C6.25 11.5858 6.58579 11.25 7 11.25H17C17.4142 11.25 17.75 11.5858 17.75 12C17.75 12.4142 17.4142 12.75 17 12.75H7C6.58579 12.75 6.25 12.4142 6.25 12Z" fill="black"/>
<path d="M3.25 8C3.25 7.58579 3.58579 7.25 4 7.25H20C20.4142 7.25 20.75 7.58579 20.75 8C20.75 8.41421 20.4142 8.75 20 8.75H4C3.58579 8.75 3.25 8.41421 3.25 8Z" fill="black"/>
</svg>
